portfolio/useful-language/assets/images/svg/icons/price-icon.svg

<?xml version="1.0" encoding="UTF-8"?>
<svg width="20px" height="37px" viewBox="0 0 20 37" version="1.1" xmlns="http://www.w3.org/2000/svg" xmlns:xlink="http://www.w3.org/1999/xlink">
    <!-- Generator: Sketch 56 (81588) - https://sketch.com -->
    <title>price-icon (2)</title>
    <desc>Created with Sketch.</desc>
    <g id="Page-1" stroke="none" stroke-width="1" fill="none" fill-rule="evenodd">
        <g id="price-icon-(2)" fill="#4D4D4D" fill-rule="nonzero">
            <path d="M18.716,13.033 L11.396,6.621 C10.5952461,5.92557076 9.40475393,5.92557076 8.604,6.621 L6.007,8.897 C5.85392789,8.33002307 5.77658937,7.74527655 5.777,7.158 C5.777,5.695 6.239,4.322 7.075,3.299 C7.865,2.329 8.91,1.791 10,1.791 C12.328,1.791 14.224,4.195 14.224,7.158 C14.224,7.651 14.627,8.054 15.119,8.054 C15.6133908,8.05290013 16.0139001,7.65239084 16.015,7.158 C16.015,3.21 13.313,0 10,0 C8.358,0 6.828,0.769 5.687,2.165 C4.59,3.508 3.985,5.277 3.985,7.158 C3.985,8.218 4.179,9.241 4.545,10.181 L1.29,13.033 C0.476604497,13.7476591 0.00933635493,14.7772515 0.007,15.86 L0.007,31.94 C0.00975555537,34.4202731 2.0197269,36.4302444 4.5,36.433 L15.507,36.433 C17.9876631,36.4302435 19.9977955,34.4196636 20,31.939 L20,15.861 C20,14.779 19.53,13.749 18.716,13.033 L18.716,13.033 Z M18.2090002,31.939 C18.2092654,32.6556963 17.9246764,33.3431148 17.4178956,33.8498956 C16.9111148,34.3566764 16.2236963,34.6410007 15.507,34.6410007 L4.493,34.6410007 C3.7763038,34.6415307 3.08877996,34.3571962 2.58181156,33.8506029 C2.07484316,33.3440096 1.79,32.6566964 1.79,31.94 L1.79,15.861 C1.79,15.294 2.036,14.749 2.462,14.376 L5.409,11.793 L5.679,12.152 C6.819,13.548 8.349,14.316 9.992,14.316 C10.4856113,14.3143537 10.8853537,13.9146113 10.887,13.421 C10.8859025,12.9269982 10.4860003,12.5266491 9.992,12.525 C8.895,12.525 7.857,11.988 7.066,11.017 C6.95984561,10.8834837 6.85779794,10.7467531 6.76,10.607 L9.775,7.964 C9.83437506,7.91023153 9.91190437,7.88093474 9.992,7.88197194 C10.052,7.88197194 10.133,7.897 10.208,7.964 L17.528,14.376 C17.954,14.749 18.2,15.294 18.2,15.861 L18.2,31.94 L18.208,31.94 L18.2090002,31.939 Z" id="Shape"></path>
            <path d="M10.985,22.654 L9.015,22.654 C8.31909153,22.6518014 7.75564691,22.08791 7.754,21.392 C7.754,20.698 8.321,20.131 9.014,20.131 L12.485,20.131 C12.9793908,20.1299001 13.3799001,19.7293908 13.381,19.235 C13.3793509,18.7409997 12.9790018,18.3410975 12.485,18.34 L10.895,18.34 L10.895,17.175 C10.8933537,16.6813887 10.4936113,16.2816463 10,16.28 C9.50560916,16.2810999 9.10509987,16.6816092 9.104,17.176 L9.104,18.341 L9.014,18.341 C7.32973109,18.3437542 5.96520229,19.7087303 5.963,21.393 C5.96465273,23.07805 7.32995067,24.4437952 9.015,24.446 L10.985,24.446 C11.679,24.446 12.246,25.014 12.246,25.708 C12.246,26.402 11.679,26.969 10.986,26.969 L7.447,26.969 C6.95260916,26.9700999 6.55209987,27.3706092 6.551,27.865 C6.551,28.358 6.954,28.761 7.447,28.761 L9.103,28.761 L9.103,29.947 C9.103,30.44 9.506,30.843 9.999,30.843 C10.4933908,30.8419001 10.8939001,30.4413908 10.895,29.947 L10.895,28.76 L11.021,28.76 C12.6911253,28.7365152 14.0334341,27.3772885 14.036,25.707 C14.0343473,24.02195 12.6690493,22.6562048 10.984,22.654 L10.985,22.654 Z" id="Path"></path>
        </g>
    </g>
</svg>

<svg width="20" height="37" xmlns="http://www.w3.org/2000/svg"><g fill="#4D4D4D" fill-rule="nonzero"><path d="M18.716 13.033l-7.32-6.412a2.129 2.129 0 0 0-2.792 0L6.007 8.897a6.654 6.654 0 0 1-.23-1.739c0-1.463.462-2.836 1.298-3.859.79-.97 1.835-1.508 2.925-1.508 2.328 0 4.224 2.404 4.224 5.367 0 .493.403.896.895.896a.898.898 0 0 0 .896-.896C16.015 3.21 13.313 0 10 0 8.358 0 6.828.769 5.687 2.165 4.59 3.508 3.985 5.277 3.985 7.158c0 1.06.194 2.083.56 3.023L1.29 13.033A3.774 3.774 0 0 0 .007 15.86v16.08A4.498 4.498 0 0 0 4.5 36.433h11.007A4.498 4.498 0 0 0 20 31.939V15.861a3.77 3.77 0 0 0-1.284-2.828zm-.507 18.906a2.701 2.701 0 0 1-2.702 2.702H4.493A2.701 2.701 0 0 1 1.79 31.94V15.861c0-.567.246-1.112.672-1.485l2.947-2.583.27.359c1.14 1.396 2.67 2.164 4.313 2.164a.898.898 0 0 0 .895-.895.898.898 0 0 0-.895-.896c-1.097 0-2.135-.537-2.926-1.508a8.369 8.369 0 0 1-.306-.41l3.015-2.643a.317.317 0 0 1 .217-.082c.06 0 .141.015.216.082l7.32 6.412c.426.373.672.918.672 1.485V31.94h.008l.001-.001z"/><path d="M10.985 22.654h-1.97a1.265 1.265 0 0 1-1.261-1.262c0-.694.567-1.261 1.26-1.261h3.471a.898.898 0 0 0 .896-.896.898.898 0 0 0-.896-.895h-1.59v-1.165A.898.898 0 0 0 10 16.28a.898.898 0 0 0-.896.896v1.165h-.09a3.056 3.056 0 0 0-3.051 3.052 3.056 3.056 0 0 0 3.052 3.053h1.97c.694 0 1.261.568 1.261 1.262 0 .694-.567 1.261-1.26 1.261H7.447a.898.898 0 0 0-.896.896c0 .493.403.896.896.896h1.656v1.186c0 .493.403.896.896.896a.898.898 0 0 0 .896-.896V28.76h.126a3.058 3.058 0 0 0 3.015-3.053 3.056 3.056 0 0 0-3.052-3.053h.001z"/></g></svg>
